X: 1
T: Isabela Blackley
M: 6/8
L: 1/8
R: jig
K: Dmaj
|:cee efa|dff fed|cee cee|dBB B2e|
cee efa|dff fed|cee fed|cAA A2e:|
|:d2f afd|cee gec| dfg afd| cAA  A2e|
d2f afd |cee ABc |cee fed |cAA A2e:|
|:dff Bff| dff Bff| cee ABA| aba  edc|
dff cee| Bdd ABA| cee fed|c2A AA2:|
|:eaa efg| fed cdc| Bdd AB=c| gfg ecA|
eaa efg| fed cdc| cee fed| c2A AA2:|
